symbols/web/photo_size_select_large/materialsymbolsoutlined/photo_size_select_large_wght300_48px.svg

<svg xmlns="http://www.w3.org/2000/svg" height="48" width="48"><path d="M9.25 41q-.9 0-1.575-.675Q7 39.65 7 38.75V14.3h26.7V41Zm29.5 0v-2.25H41q0 .9-.675 1.575Q39.65 41 38.75 41ZM11.6 36.6h17.65l-6-7.9-4.6 6.25-2.85-3.9Zm27.15-1.95v-4.1H41v4.1Zm0-8.6V21.9H41v4.15Zm0-8.6v-4.1H41v4.1ZM7 9.25q0-.9.675-1.575Q8.35 7 9.25 7v2.25Zm6.55 0V7h4.1v2.25Zm8.4 0V7h4.15v2.25Zm8.4 0V7h4.1v2.25Zm8.4 0V7q.9 0 1.575.675Q41 8.35 41 9.25Z"/></svg>

<svg xmlns="http://www.w3.org/2000/svg" height="48" width="48"><path d="M9.25 41Q8.35 41 7.675 40.325Q7 39.65 7 38.75V14.3H33.7V41ZM11.6 36.6H29.25L23.25 28.7L18.65 34.95L15.8 31.05ZM7 9.25Q7 8.35 7.675 7.675Q8.35 7 9.25 7V9.25ZM21.95 9.25V7H26.1V9.25ZM38.75 9.25V7Q39.65 7 40.325 7.675Q41 8.35 41 9.25ZM13.55 9.25V7H17.65V9.25ZM38.75 26.05V21.9H41V26.05ZM38.75 41V38.75H41Q41 39.65 40.325 40.325Q39.65 41 38.75 41ZM38.75 17.45V13.35H41V17.45ZM38.75 34.65V30.55H41V34.65ZM30.35 9.25V7H34.45V9.25Z"/></svg>
